X: 23727
T: Listowel, The
R: polka
M: 2/4
K: Bminor
|:F|B>c de|fB Bd|c/B/A ed|cA Ac|
B>c de|fB B>c|dB c/B/A|B2 B:|
|:c|df Bf|df a/f/e/d/|c>e A>B|cd e/f/e/c/|
d/e/f B>c|de f/g/f/e/|dc/B/ c/B/A|B3:|

